storage/app/icons/phosphoricons/duotone/number-square-two-duotone.svg

<svg xmlns="http://www.w3.org/2000/svg" fill="currentColor" viewBox="0 0 256 256"><path d="M216 48v160a8 8 0 0 1-8 8H48a8 8 0 0 1-8-8V48a8 8 0 0 1 8-8h160a8 8 0 0 1 8 8" opacity=".2"/><path d="M208 32H48a16 16 0 0 0-16 16v160a16 16 0 0 0 16 16h160a16 16 0 0 0 16-16V48a16 16 0 0 0-16-16m0 176H48V48h160zm-48-32a8 8 0 0 1-8 8h-48a8 8 0 0 1-6.4-12.8l43.17-57.56a16 16 0 1 0-27.86-15 8 8 0 0 1-15.09-5.34 32.4 32.4 0 0 1 4.62-8.59 32 32 0 1 1 51.11 38.52L120 168h32a8 8 0 0 1 8 8"/></svg>

<svg xmlns="http://www.w3.org/2000/svg" viewBox="0 0 256 256" fill="currentColor"><path d="M216,48V208a8,8,0,0,1-8,8H48a8,8,0,0,1-8-8V48a8,8,0,0,1,8-8H208A8,8,0,0,1,216,48Z" opacity="0.2"/><path d="M208,32H48A16,16,0,0,0,32,48V208a16,16,0,0,0,16,16H208a16,16,0,0,0,16-16V48A16,16,0,0,0,208,32Zm0,176H48V48H208V208Zm-48-32a8,8,0,0,1-8,8H104a8,8,0,0,1-6.4-12.8l43.17-57.56a16,16,0,1,0-27.86-15,8,8,0,0,1-15.09-5.34,32.43,32.43,0,0,1,4.62-8.59,32,32,0,1,1,51.11,38.52L120,168h32A8,8,0,0,1,160,176Z"/></svg>
